Obsidian-SemiLight/actions/22s/im-aim.svg

<svg viewBox="0 0 22 22" xmlns="http://www.w3.org/2000/svg"><path d="m15.316406 7.609375v6.65625h1.060547v-6.65625zm-9.6015622.4082031-2.7148438 6.2480469h1.2324219l.5664062-1.425781h2.6972657l.5800781 1.425781h1.265625l-2.6835938-6.2480469zm.4277343 1.3320313c.0887458.3006.1870464.5833425.2929688.8496096l.6738281 1.683593h-1.9375l.6699219-1.654296c.1116479-.2748008.2120355-.56684.3007812-.8789066zm5.8964839.5527344c-.646984 0-1.194034.2059012-1.640624.6152342-.4465925.406533-.6699224.947447-.6699224 1.623047 0 .669933.2079465 1.211886.6230464 1.626953.415103.415133.96215.623047 1.640626.623047.423688 0 .78326-.065532 1.078124-.197266.297729-.134533.543614-.313842.738282-.537109.197531-.223333.333771-.467135.408203-.730469.077295-.266266.115234-.48341.115234-.652343 0-.340667-.029724-.612167-.089843-.8125-.094472-.317801-.24714-.598464-.458985-.841797-.211845-.243334-.468941-.423616-.769531-.541016-.297728-.1173333-.62249-.1757812-.97461-.1757812zm0 .9375002c.403651 0 .7069.129052.910157.386718.206118.257601.308594.579417.308593.96875.000002.223335-.047197.43528-.144531.632813s-.245828.35337-.443359.470703c-.194668.1174-.416955.177735-.666016.177734-.346394 0-.632307-.119821-.861328-.357421-.226159-.240467-.339844-.559098-.339844-.957032 0-.397933.116816-.716564.351563-.957031.234747-.243333.529783-.365234.884765-.365234zm6.261719 2.078125c-.197531 0-.366493.067678-.503906.205078-.13455.1374-.201172.30338-.201172.498047 0 .194666.069619.360647.207031.498047.137413.1346.303379.203125.498047.203125.191806 0 .354775-.069565.492188-.207032.137412-.1374.207031-.30234.207031-.49414 0-.194667-.069619-.360647-.207031-.498047-.13455-.1374-.29752-.205078-.492188-.205078z" fill="#4d4d4d"/></svg>

<svg xmlns="http://www.w3.org/2000/svg" viewBox="0 0 22 22">
  <defs id="defs3051">
    <style type="text/css" id="current-color-scheme">
      .ColorScheme-Text {
        color:#4d4d4d;
      }
      </style>
  </defs>
 <path 
     style="fill:currentColor;fill-opacity:1;stroke:none" 
     d="M 15.316406 7.609375 L 15.316406 14.265625 L 16.376953 14.265625 L 16.376953 7.609375 L 15.316406 7.609375 z M 5.7148438 8.0175781 L 3 14.265625 L 4.2324219 14.265625 L 4.7988281 12.839844 L 7.4960938 12.839844 L 8.0761719 14.265625 L 9.3417969 14.265625 L 6.6582031 8.0175781 L 5.7148438 8.0175781 z M 6.1425781 9.3496094 C 6.2313239 9.6502094 6.3296245 9.9329519 6.4355469 10.199219 L 7.109375 11.882812 L 5.171875 11.882812 L 5.8417969 10.228516 C 5.9534448 9.9537152 6.0538324 9.661676 6.1425781 9.3496094 z M 12.039062 9.9023438 C 11.392078 9.9023438 10.845028 10.108245 10.398438 10.517578 C 9.9518455 10.924111 9.7285156 11.465025 9.7285156 12.140625 C 9.7285156 12.810558 9.9364621 13.352511 10.351562 13.767578 C 10.766665 14.182711 11.313712 14.390625 11.992188 14.390625 C 12.415876 14.390625 12.775448 14.325093 13.070312 14.193359 C 13.368041 14.058826 13.613926 13.879517 13.808594 13.65625 C 14.006125 13.432917 14.142365 13.189115 14.216797 12.925781 C 14.294092 12.659515 14.332031 12.442371 14.332031 12.273438 C 14.332031 11.932771 14.302307 11.661271 14.242188 11.460938 C 14.147716 11.143137 13.995048 10.862474 13.783203 10.619141 C 13.571358 10.375807 13.314262 10.195525 13.013672 10.078125 C 12.715944 9.9607917 12.391182 9.9023438 12.039062 9.9023438 z M 12.039062 10.839844 C 12.442713 10.839844 12.745962 10.968896 12.949219 11.226562 C 13.155337 11.484163 13.257813 11.805979 13.257812 12.195312 C 13.257814 12.418647 13.210615 12.630592 13.113281 12.828125 C 13.015947 13.025658 12.867453 13.181495 12.669922 13.298828 C 12.475254 13.416228 12.252967 13.476563 12.003906 13.476562 C 11.657512 13.476562 11.371599 13.356741 11.142578 13.119141 C 10.916419 12.878674 10.802734 12.560043 10.802734 12.162109 C 10.802734 11.764176 10.91955 11.445545 11.154297 11.205078 C 11.389044 10.961745 11.68408 10.839844 12.039062 10.839844 z M 18.300781 12.917969 C 18.10325 12.917969 17.934288 12.985647 17.796875 13.123047 C 17.662325 13.260447 17.595703 13.426427 17.595703 13.621094 C 17.595703 13.81576 17.665322 13.981741 17.802734 14.119141 C 17.940147 14.253741 18.106113 14.322266 18.300781 14.322266 C 18.492587 14.322266 18.655556 14.252701 18.792969 14.115234 C 18.930381 13.977834 19 13.812894 19 13.621094 C 19 13.426427 18.930381 13.260447 18.792969 13.123047 C 18.658419 12.985647 18.495449 12.917969 18.300781 12.917969 z "
     class="ColorScheme-Text"
     />
</svg>
